X:1
T: JJ's Reel (Variation)
C:
R:Reel
Q: 232
K:G
M:4/4
L:1/8
|:GF ED ED B,G,|CB, CD E2 G2|D^C DE GA BG|AB AG FD EF|
GF ED ED B,G,|CB, CD E2 G2|DG BG AD FA|1G4 GD EF:|2G4 GD GA|
BD DB D2 BD|cE Ec E2 cE|BD DB D2 BD|AB AG FD GA|
BD DB D2 BD|cE Ec E2 cE|BA GB AG FA|G4 GD GA|
BD DB dD BD|cE Ec eE cE|BD DB dD BD|AB AG FD GA|
GF ED ED B,G,|CB, CD E2 G2|DG BG AD FA|GB de g3||
